sort-numeric-variant.svg

<svg fill="currentColor" viewBox="0 0 24 24"><path d="M7.78 7c1.3.04 2.22.53 2.79 1.46.56.94.84 2.1.82 3.49.01 1.55-.3 2.78-.89 3.67-.62.88-1.55 1.35-2.79 1.38-1.26-.04-2.17-.5-2.75-1.44-.58-.93-.87-2.11-.87-3.56s.3-2.64.91-3.56C5.59 7.5 6.5 7.04 7.78 7m-.03 1.63c-.44 0-.79.27-1.05.83-.26.54-.38 1.41-.38 2.54-.01 1.15.12 2 .37 2.54.26.56.62.83 1.08.83.92 0 1.39-1.13 1.4-3.37 0-2.23-.47-3.35-1.42-3.37M13.33 17v-1.78l.43.02.54-.02 1.04-.19c.34-.11.66-.25.92-.45.33-.23.6-.5.81-.82.22-.31.37-.64.46-.98l-.03-.01c-.45.42-1.12.63-2.03.64-.85-.01-1.56-.26-2.13-.76s-.84-1.22-.88-2.15c.01-1 .35-1.81 1.01-2.47.67-.66 1.53-1 2.65-1.03 1.25.04 2.17.45 2.76 1.24.59.76.88 1.76.88 2.95-.01.96-.15 1.81-.44 2.57-.29.74-.68 1.37-1.2 1.88-.46.42-1.01.74-1.65.97q-.96.33-2.13.39zm2.73-8.37c-.41.01-.74.17-1 .48-.25.31-.38.73-.38 1.25 0 .44.12.8.35 1.1.24.31.6.46 1.08.47.32 0 .59-.07.81-.19.22-.13.38-.28.49-.46.09-.11.12-.31.12-.57.01-.55-.1-1.02-.33-1.43s-.61-.63-1.14-.65M9.25 5l3.25-3.25L15.75 5zm6.5 14-3.25 3.25L9.25 19z"/></svg>

<svg  viewBox="0 0 24 24" fill="currentColor"><path  d="M7.78,7C9.08,7.04 10,7.53 10.57,8.46C11.13,9.4 11.41,10.56 11.39,11.95C11.4,13.5 11.09,14.73 10.5,15.62C9.88,16.5 8.95,16.97 7.71,17C6.45,16.96 5.54,16.5 4.96,15.56C4.38,14.63 4.09,13.45 4.09,12C4.09,10.55 4.39,9.36 5,8.44C5.59,7.5 6.5,7.04 7.78,7M7.75,8.63C7.31,8.63 6.96,8.9 6.7,9.46C6.44,10 6.32,10.87 6.32,12C6.31,13.15 6.44,14 6.69,14.54C6.95,15.1 7.31,15.37 7.77,15.37C8.69,15.37 9.16,14.24 9.17,12C9.17,9.77 8.7,8.65 7.75,8.63M13.33,17V15.22L13.76,15.24L14.3,15.22L15.34,15.03C15.68,14.92 16,14.78 16.26,14.58C16.59,14.35 16.86,14.08 17.07,13.76C17.29,13.45 17.44,13.12 17.53,12.78L17.5,12.77C17.05,13.19 16.38,13.4 15.47,13.41C14.62,13.4 13.91,13.15 13.34,12.65C12.77,12.15 12.5,11.43 12.46,10.5C12.47,9.5 12.81,8.69 13.47,8.03C14.14,7.37 15,7.03 16.12,7C17.37,7.04 18.29,7.45 18.88,8.24C19.47,9 19.76,10 19.76,11.19C19.75,12.15 19.61,13 19.32,13.76C19.03,14.5 18.64,15.13 18.12,15.64C17.66,16.06 17.11,16.38 16.47,16.61C15.83,16.83 15.12,16.96 14.34,17H13.33M16.06,8.63C15.65,8.64 15.32,8.8 15.06,9.11C14.81,9.42 14.68,9.84 14.68,10.36C14.68,10.8 14.8,11.16 15.03,11.46C15.27,11.77 15.63,11.92 16.11,11.93C16.43,11.93 16.7,11.86 16.92,11.74C17.14,11.61 17.3,11.46 17.41,11.28C17.5,11.17 17.53,10.97 17.53,10.71C17.54,10.16 17.43,9.69 17.2,9.28C16.97,8.87 16.59,8.65 16.06,8.63M9.25,5L12.5,1.75L15.75,5H9.25M15.75,19L12.5,22.25L9.25,19H15.75Z"/></svg>
